!!!OTL: Yueliang yueguangguang
!!!ARE: Asia, China, Fujian Jinjiang
!! II, 579
!!!SCT: C2001
!!!YEM: Copyright 1995, estate of Helmut Schaffrath.
**kern
*ICvox
*Ivox
!! Mixed meters:  2/4; 1/4
*M2/4
*k[b-]
*F:
{8a
8a
8cc
8a
=1
8f
8f
8a
8r}
=2
{8a
8a
8cc
8a
=3
8f
8f
8a
8r}
=4
{8f
8f
8a
8r}
=5
{8f
8f
8a
8r}
=6
{8c
8g
8c
8e-
=7
*M1/4
8e-
8r}
=8
*M2/4
{8c
8e-
8c
8c
=9
*M1/4
8e-
8r}
=10
*M2/4
{8e-
8g
8g
8f
=11
8g
8c
8g
8r}
=12
{8f
8g
8c
8e-
=13
8c
8c
8e-
8r}
=14
{8f
8e-
8f
8e-
=15
*M1/4
8e-
8r}
=16
*M2/4
{8f
8g
8f
8e-
=17
*M1/4
8e-
8r}
=18
*M2/4
{8f
8g
8g
8e-
=19
8c
8e-
8e-
8r}
=20
{8f
8g
8f
8g
=21
8g
8e-
8e-
8r}
=22
{8f
8f
8f
8c
=23
8g
8c
8e-
8r}
=24
{8f
8c
8c
8e-
=25
8f
8c
8f
8r}
=26
{8c
8f
8c
8e-
=27
8f
8c
8e-
8r}
=28
{8f
8c
8f
8f
=29
8f
8c
8f
8r}
=30
{8f
8e-
8f
8e-
=31
4e-
4f
=32
4g
4r}
=33
{8f
8c
8f
8c
=34
8c
8e-
8f
8r}
=35
{8c
8f
8e-
8c
=36
8f
8g
8g
8g
=37
*M1/4
8g
8r}
=38
*M2/4
{8g
8c
8c
8f
=39
*M1/4
8e-
8r}
=40
*M2/4
{8c
8f
8f
8r
=41
8c
8f
8f
8r}
=42
{8f
8c
8c
8f
=43
8f
8c
8f
8c
=44
8f
8e-
8f
8c
=45
8f
8r}
==
!!!AGN: Xiaodiao, Erge, Shishierge
!! With a transposition
!!!AMT: irregular
!!!AIN: vox
!!!EED: Helmut Schaffrath
!!!EEV: 1.0
*-
